raw/symbols/dash.svg

<svg width="42" height="42" viewBox="0 0 42 42" fill="none" xmlns="http://www.w3.org/2000/svg">
<path d="M21 41C32.0457 41 41 32.0457 41 21C41 9.9543 32.0457 1 21 1C9.9543 1 1 9.9543 1 21C1 32.0457 9.9543 41 21 41Z" fill="#008CE7"/>
<path d="M24.8161 11H15.8478L15.104 15.1555L23.199 15.1651C27.1866 15.1651 28.3622 16.6142 28.3286 19.0134C28.3094 20.2418 27.7768 22.3244 27.5465 23.001C26.9323 24.8004 25.6703 26.8493 20.939 26.8445L13.0695 26.8397L12.3281 31H21.2773C24.4347 31 25.7734 30.6305 27.1986 29.9779C30.3512 28.5144 32.2274 25.405 32.9807 21.3455C34.0964 15.2994 32.7048 11 24.8161 11Z" fill="#F3F3F3"/>
<path d="M11.9772 18.9131C9.62596 18.9131 9.29007 20.4438 9.06934 21.3699C8.77663 22.5791 8.68066 23.0734 8.68066 23.0734H17.8649C20.2162 23.0734 20.5521 21.5426 20.7728 20.6165C21.0655 19.4073 21.1615 18.9131 21.1615 18.9131H11.9772Z" fill="#F3F3F3"/>
</svg>

<svg xmlns="http://www.w3.org/2000/svg" width="42" height="42" fill="none"><path fill="#008CE7" d="M21 41c11.046 0 20-8.954 20-20S32.046 1 21 1 1 9.954 1 21s8.954 20 20 20Z"/><path fill="#F3F3F3" d="M24.816 11h-8.968l-.744 4.155 8.095.01c3.988 0 5.163 1.45 5.13 3.848-.02 1.229-.552 3.311-.782 3.988-.615 1.8-1.877 3.848-6.608 3.843l-7.87-.004-.74 4.16h8.948c3.158 0 4.496-.37 5.922-1.022 3.152-1.464 5.028-4.573 5.782-8.633C34.096 15.3 32.705 11 24.816 11Z"/><path fill="#F3F3F3" d="M11.977 18.913c-2.351 0-2.687 1.53-2.908 2.457a44.39 44.39 0 0 0-.388 1.703h9.184c2.351 0 2.687-1.53 2.908-2.457a44.49 44.49 0 0 0 .389-1.703h-9.185Z"/></svg>
